symbolic/32x32/places/folder-deeporange-yandex-disk.svg

<svg xmlns="http://www.w3.org/2000/svg" width="32" height="32" version="1"><rect style="opacity:.2" width="28" height="18" x="2" y="11" rx="1.4" ry="1.4"/><path style="fill:#e95420" d="M2 22.6c0 .776.624 1.4 1.4 1.4h25.2c.776 0 1.4-.624 1.4-1.4V7.4c0-.776-.624-1.4-1.4-1.4H16c-2.1 0-2.8-3-4.9-3H3.4C2.624 3 2 3.624 2 4.4"/><rect style="opacity:.2" width="28" height="18" x="2" y="9" rx="1.4" ry="1.4"/><rect style="fill:#e4e4e4" width="24" height="11" x="4" y="8" rx="1.4" ry="1.4"/><rect style="fill:#eb6637" width="28" height="18" x="2" y="10" rx="1.4" ry="1.4"/><path style="opacity:.1;fill:#fff" d="M3.4 3C2.625 3 2 3.625 2 4.4v1C2 4.625 2.625 4 3.4 4h7.7c2.1 0 2.8 3 4.9 3h12.6c.775 0 1.4.625 1.4 1.4v-1c0-.775-.625-1.4-1.4-1.4H16c-2.1 0-2.8-3-4.9-3z"/><path style="fill:#522413" d="M15.319 15.035c-2.667 0-2.046 2.236-3.412 2.97-.047.027-.073.051-.115.077.9-.535 2.01-.984 3.189-1.287.998-.257 2.01-.401 2.944-.419h.072c-.901-.256-1-1.341-2.678-1.341zm2.906 2.016c-.933.018-1.946.162-2.944.419-3.29.847-5.635 2.688-5.237 4.112.229.814 1.333 1.551 2.978 1.649l-.003-.018c-.09-.77.4-1.44.973-1.894.573-.454 1.309-.784 2.137-.959.828-.176 1.602-.168 2.25.027.609.184 1.182.584 1.323 1.27 1.648-.924 2.504-2.238 2.256-3.139-.263-.944-1.694-1.506-3.733-1.467zM17.247 21a4.705 4.705 0 0 0-1.033.107c-1.447.307-2.548 1.18-2.46 1.949.09.77 1.335 1.144 2.782.837 1.447-.308 2.548-1.181 2.458-1.95-.064-.56-.753-.931-1.747-.943z"/></svg>

<svg xmlns="http://www.w3.org/2000/svg" width="32" height="32" version="1">
 <rect style="opacity:0.2" width="28" height="18" x="2" y="11" rx="1.4" ry="1.4"/>
 <path style="fill:#e95420" d="M 2,22.6 C 2,23.376 2.6244,24 3.4,24 H 28.6 C 29.376,24 30,23.376 30,22.6 V 7.4 C 30,6.6244 29.376,6 28.6,6 H 16 C 13.9,6 13.2,3 11.1,3 H 3.4 C 2.6244,3 2,3.6244 2,4.4"/>
 <rect style="opacity:0.2" width="28" height="18" x="2" y="9" rx="1.4" ry="1.4"/>
 <rect style="fill:#e4e4e4" width="24" height="11" x="4" y="8" rx="1.4" ry="1.4"/>
 <rect style="fill:#eb6637" width="28" height="18" x="2" y="10" rx="1.4" ry="1.4"/>
 <path style="opacity:0.1;fill:#ffffff" d="M 3.4004,3 C 2.6248,3 2,3.6248 2,4.4004 V 5.4004 C 2,4.6248 2.6248,4 3.4004,4 H 11.1 C 13.2,4 13.9,7 16,7 H 28.6 C 29.375,7 30,7.6248 30,8.4004 V 7.4004 C 30,6.6248 29.375,6 28.6,6 H 16 C 13.9,6 13.2,3 11.1,3 Z"/>
 <path style="fill:#522413" d="m 15.318865,15.035 c -2.667,0 -2.046,2.236 -3.412,2.97 -0.047,0.027 -0.073,0.051 -0.115,0.077 0.9,-0.535 2.01,-0.984 3.189,-1.287 0.998,-0.257 2.01,-0.401 2.944,-0.419 0.024,0 0.048,0 0.072,0 -0.901,-0.256 -0.999,-1.341 -2.678,-1.341 z m 2.906,2.016 c -0.933,0.018 -1.946,0.162 -2.944,0.419 -3.29,0.847 -5.6346996,2.688 -5.237,4.112 0.2291,0.814 1.333,1.551 2.978,1.649 -10e-4,-0.006 -0.002,-0.012 -0.003,-0.018 -0.089,-0.77 0.4,-1.44 0.973,-1.894 0.573,-0.454 1.309,-0.784 2.137,-0.959 0.828,-0.176 1.602,-0.168 2.25,0.027 0.609,0.184 1.182,0.584 1.323,1.27 1.648,-0.924 2.504,-2.238 2.256,-3.139 -0.263,-0.944 -1.694,-1.506 -3.733,-1.467 z m -0.978,3.949 c -0.331,-0.004 -0.683,0.032 -1.033,0.107 -1.447,0.307 -2.548,1.18 -2.459,1.949 0.089,0.77 1.334,1.144 2.781,0.837 1.447,-0.308 2.548,-1.181 2.458,-1.95 -0.064,-0.56 -0.753,-0.931 -1.747,-0.943 z"/>
</svg>
